SVG_Azure_All/Virtual Machine Best Practices.svg

<?xml version="1.0" encoding="UTF-8" standalone="no"?>
<!-- Generated by Microsoft Visio, SVG Export Virtual Machine Best Practices.svg Page-1 -->

<svg
   xmlns:dc="http://purl.org/dc/elements/1.1/"
   xmlns:cc="http://creativecommons.org/ns#"
   xmlns:rdf="http://www.w3.org/1999/02/22-rdf-syntax-ns#"
   xmlns:svg="http://www.w3.org/2000/svg"
   xmlns="http://www.w3.org/2000/svg"
   xmlns:sodipodi="http://sodipodi.sourceforge.net/DTD/sodipodi-0.dtd"
   xmlns:inkscape="http://www.inkscape.org/namespaces/inkscape"
   width="0.78736138in"
   height="0.70868915in"
   viewBox="0 0 56.689928 51.025603"
   xml:space="preserve"
   class="st5"
   version="1.1"
   id="svg45"
   sodipodi:docname="Virtual Machine Best Practices.svg"
   style="font-size:12px;overflow:visible;color-interpolation-filters:sRGB;fill:none;fill-rule:evenodd;stroke-linecap:square;stroke-miterlimit:3"
   inkscape:version="0.92.5 (2060ec1f9f, 2020-04-08)"><metadata
   id="metadata49"><rdf:RDF><cc:Work
       rdf:about=""><dc:format>image/svg+xml</dc:format><dc:type
         rdf:resource="http://purl.org/dc/dcmitype/StillImage" /></cc:Work></rdf:RDF></metadata><sodipodi:namedview
   pagecolor="#ffffff"
   bordercolor="#666666"
   borderopacity="1"
   objecttolerance="10"
   gridtolerance="10"
   guidetolerance="10"
   inkscape:pageopacity="0"
   inkscape:pageshadow="2"
   inkscape:window-width="640"
   inkscape:window-height="480"
   id="namedview47"
   showgrid="false"
   inkscape:zoom="1.4869072"
   inkscape:cx="37.795348"
   inkscape:cy="34.006413"
   inkscape:window-x="0"
   inkscape:window-y="0"
   inkscape:window-maximized="0"
   inkscape:current-layer="svg45" />
	<style
   type="text/css"
   id="style2">
	<![CDATA[
		.st1 {fill:url(#grad0-6);stroke:none;stroke-linecap:butt;stroke-width:34}
		.st2 {fill:url(#grad0-10);stroke:none;stroke-linecap:butt;stroke-width:34}
		.st3 {fill:#ffffff;fill-opacity:0.8;stroke:none;stroke-linecap:butt;stroke-width:34}
		.st4 {fill:#ffffff;stroke:none;stroke-linecap:butt;stroke-width:34}
		.st5 {fill:none;fill-rule:evenodd;font-size:12px;overflow:visible;stroke-linecap:square;stroke-miterlimit:3}
	]]>
	</style>

	<defs
   id="Patterns_And_Gradients">
		<linearGradient
   id="grad0-6"
   x1="0"
   y1="102.02082"
   x2="45.687261"
   y2="102.02082"
   gradientTransform="scale(1.2408273,0.80591393)"
   gradientUnits="userSpaceOnUse">
			<stop
   offset="0"
   stop-color="#0078d4"
   stop-opacity="1"
   id="stop4" />
			<stop
   offset="0.8"
   stop-color="#5ea0ef"
   stop-opacity="1"
   id="stop6" />
		</linearGradient>
		<linearGradient
   id="grad0-10"
   x1="-5.1155188e-05"
   y1="148.06968"
   x2="20.071208"
   y2="148.06968"
   gradientTransform="scale(1.4124743,0.7079775)"
   gradientUnits="userSpaceOnUse">
			<stop
   offset="0"
   stop-color="#cccccc"
   stop-opacity="1"
   id="stop9" />
			<stop
   offset="1"
   stop-color="#707070"
   stop-opacity="1"
   id="stop11" />
		</linearGradient>
	</defs>
	<g
   id="g43"
   transform="translate(-34.000079,-33.9987)">
		<title
   id="title15">Page-1</title>
		<g
   id="group529-1"
   transform="translate(34,-34.0157)">
			<title
   id="title17">Virtual Machine Best Practices</title>
			<g
   id="group530-2">
				<title
   id="title19">Sheet.530</title>
				<g
   id="shape531-3"
   transform="translate(0,-14.2056)">
					<title
   id="title21">Sheet.531</title>
					<path
   d="m 0,117.2 a 1.88981,1.84094 -180 0 0 1.89,1.84 H 54.8 a 1.88981,1.84094 -180 0 0 1.89,-1.84 V 84.06 A 1.88981,1.84094 -180 0 0 54.8,82.22 H 1.89 A 1.88981,1.84094 -180 0 0 0,84.06 Z"
   class="st1"
   id="path23"
   inkscape:connector-curvature="0"
   style="fill:url(#grad0-6);stroke:none;stroke-width:34;stroke-linecap:butt" />
				</g>
				<g
   id="shape532-7"
   transform="translate(14.1732)">
					<title
   id="title26">Sheet.532</title>
					<path
   d="m 25.54,115.97 c -5.6,-0.86 -5.82,-4.79 -5.82,-11.14 H 8.6 c 0,6.35 -0.19,10.28 -5.8,11.14 A 3.14961,3.06817 -180 0 0 0,119.04 h 28.35 a 3.14961,3.06817 -180 0 0 -2.81,-3.07 z"
   class="st2"
   id="path28"
   inkscape:connector-curvature="0"
   style="fill:url(#grad0-10);stroke:none;stroke-width:34;stroke-linecap:butt" />
				</g>
				<g
   id="shape533-11"
   transform="translate(13.1213,-19.3968)">
					<title
   id="title31">Sheet.533</title>
					<path
   d="M 18.72,92 A 0.873511,0.850924 -180 1 0 18.294803,93.65067 12.9354,12.601 0 1 1 4.16,99.28 l 0.35,0.24 2.46,1.67 a 0.151181,0.147272 -180 0 0 0.15748,-0.17182 L 6.55,94.5 A 0.151181,0.147272 -180 0 0 6.376772,94.380341 L 0.11,96.36 A 0.151181,0.147272 -180 0 0 0.002913,96.565567 L 2.59,98.22 l 0.14,0.1 a 14.6362,14.2578 -180 1 0 16,-6.32 z"
   class="st3"
   id="path33"
   inkscape:connector-curvature="0"
   style="fill:#ffffff;fill-opacity:0.8;stroke:none;stroke-width:34;stroke-linecap:butt" />
				</g>
				<g
   id="shape534-13"
   transform="translate(18.4504,-23.5114)">
					<title
   id="title36">Sheet.534</title>
					<path
   d="m 16.77,107.22 -1.05,-1.78 0.57,-3.24 -2.67,-1.5 -2.6,2.1 h -2.1 l -2.6,-2.1 -2.67,1.5 0.58,3.26 -1.06,1.76 -3.17,1.14 v 3.01 l 3.17,1.14 1.05,1.77 -0.57,3.26 2.67,1.5 2.6,-2.1 h 2.1 l 2.6,2.1 2.67,-1.5 -0.57,-3.25 1.05,-1.77 3.17,-1.14 v -3.01 z m -6.8,7.2 a 4.66457,4.54396 0 1 1 4.65,-4.55 4.66457,4.54396 0 0 1 -4.65,4.55 z"
   class="st4"
   id="path38"
   inkscape:connector-curvature="0"
   style="fill:#ffffff;stroke:none;stroke-width:34;stroke-linecap:butt" />
				</g>
			</g>
		</g>
	</g>
</svg>

<?xml version="1.0" encoding="UTF-8" standalone="no"?>
<!DOCTYPE svg PUBLIC "-//W3C//DTD SVG 1.1//EN" "http://www.w3.org/Graphics/SVG/1.1/DTD/svg11.dtd">
<!-- Generated by Microsoft Visio, SVG Export Virtual Machine Best Practices.svg Page-1 -->
<svg xmlns="http://www.w3.org/2000/svg" xmlns:xlink="http://www.w3.org/1999/xlink" xmlns:ev="http://www.w3.org/2001/xml-events"
		width="1.73185in" height="1.65332in" viewBox="0 0 124.693 119.039" xml:space="preserve" color-interpolation-filters="sRGB"
		class="st5">
	<style type="text/css">
	<![CDATA[
		.st1 {fill:url(#grad0-6);stroke:none;stroke-linecap:butt;stroke-width:34}
		.st2 {fill:url(#grad0-10);stroke:none;stroke-linecap:butt;stroke-width:34}
		.st3 {fill:#ffffff;fill-opacity:0.8;stroke:none;stroke-linecap:butt;stroke-width:34}
		.st4 {fill:#ffffff;stroke:none;stroke-linecap:butt;stroke-width:34}
		.st5 {fill:none;fill-rule:evenodd;font-size:12px;overflow:visible;stroke-linecap:square;stroke-miterlimit:3}
	]]>
	</style>

	<defs id="Patterns_And_Gradients">
		<linearGradient id="grad0-6" x1="0" y1="0" x2="1" y2="0" gradientTransform="rotate(-90 0.5 0.5)">
			<stop offset="0" stop-color="#0078d4" stop-opacity="1"/>
			<stop offset="0.8" stop-color="#5ea0ef" stop-opacity="1"/>
		</linearGradient>
		<linearGradient id="grad0-10" x1="0" y1="0" x2="1" y2="0" gradientTransform="rotate(-90 0.5 0.5)">
			<stop offset="0" stop-color="#cccccc" stop-opacity="1"/>
			<stop offset="1" stop-color="#707070" stop-opacity="1"/>
		</linearGradient>
	</defs>
	<g>
		<title>Page-1</title>
		<g id="group529-1" transform="translate(34,-34.0157)">
			<title>Virtual Machine Best Practices</title>
			<g id="group530-2">
				<title>Sheet.530</title>
				<g id="shape531-3" transform="translate(0,-14.2056)">
					<title>Sheet.531</title>
					<path d="M0 117.2 A1.88981 1.84094 -180 0 0 1.89 119.04 L54.8 119.04 A1.88981 1.84094 -180 0 0 56.69 117.2 L56.69
								 84.06 A1.88981 1.84094 -180 0 0 54.8 82.22 L1.89 82.22 A1.88981 1.84094 -180 0 0 0 84.06 L0 117.2
								 Z" class="st1"/>
				</g>
				<g id="shape532-7" transform="translate(14.1732,1.42109E-14)">
					<title>Sheet.532</title>
					<path d="M25.54 115.97 C19.94 115.11 19.72 111.18 19.72 104.83 L8.6 104.83 C8.6 111.18 8.41 115.11 2.8 115.97
								 A3.14961 3.06817 -180 0 0 -0 119.04 L28.35 119.04 A3.14961 3.06817 -180 0 0 25.54 115.97 Z"
							class="st2"/>
				</g>
				<g id="shape533-11" transform="translate(13.1213,-19.3968)">
					<title>Sheet.533</title>
					<path d="M18.72 92 a0.873511 0.850924 -180 1 0 -0.425197 1.65067 A12.9354 12.601 0 1 1 4.16 99.28 L4.51 99.52
								 L6.97 101.19 a0.151181 0.147272 -180 0 0 0.15748 -0.171817 L6.55 94.5 a0.151181 0.147272 -180 0
								 0 -0.173228 -0.119659 L0.11 96.36 a0.151181 0.147272 -180 0 0 -0.107087 0.205567 L2.59 98.22 L2.73
								 98.32 A14.6362 14.2578 -180 1 0 18.73 92 L18.72 92 Z" class="st3"/>
				</g>
				<g id="shape534-13" transform="translate(18.4504,-23.5114)">
					<title>Sheet.534</title>
					<path d="M16.77 107.22 L15.72 105.44 L16.29 102.2 L13.62 100.7 L11.02 102.8 L8.92 102.8 L6.32 100.7 L3.65 102.2
								 L4.23 105.46 L3.17 107.22 L0 108.36 L0 111.37 L3.17 112.51 L4.22 114.28 L3.65 117.54 L6.32 119.04
								 L8.92 116.94 L11.02 116.94 L13.62 119.04 L16.29 117.54 L15.72 114.29 L16.77 112.52 L19.94 111.38
								 L19.94 108.37 L16.77 107.22 ZM9.97 114.42 A4.66457 4.54396 0 1 1 14.62 109.87 A4.66457 4.54396 0
								 0 1 9.97 114.42 Z" class="st4"/>
				</g>
			</g>
		</g>
	</g>
</svg>
